!! 00000] TT[00
!! NN
!!!OTL: Heli de langtou fan san fan
!!!ARE: Qinghai, Xunhua, Tongren
!! Ethnic Group: Sala (Salar oder Sala)
!! I, 248 (2)
!!!SCT: C0065
!!!YEM: Copyright 1995, estate of Helmut Schaffrath.
**kern
*ICvox
*Ivox
!! Mixed meters:  3/4; 4/4
*M4/4
*k[]
*C:
{4a
=1
4dd
4dd
8a
8g
=2
8a
8cc
2dd
=3
[2dd]
8dd]
8ee
=4
8dd
8ee
16dd
8.cc
8cc
8dd
=5
4a
4r}
{8r
8a
=6
4g
4g
8d
8d
=7
4g
8a
8cc
8dd
8ee
=8
4dd
8dd
8cc
4a}
=9
{8a
8cc
8e
8d
8d
8d
=10
4g
8a
8cc
4a
8r
16dd
16dd
=11
*M3/4
8gg
4.dd
4a
=12
8a
8g
4cc
[4a
=13
2a]}
{8r
8dd
=14
*M4/4
8dd
8gg
8.a
16cc
8a
8r
8a
8r
=15
*M3/4
8a
8g
8a
8g
4g
=16
*M4/4
1g
=17
4g
4g
4r}
==
!!!AGN: Shange, Huaer(Sui hong hua ling). NannÅ liqing
!! Takt 4 lautet in der 2. Strophe: +2_+3_+2__.+1_+2_+1_
!!    Vereinzelt Verzierungen.
!!!ONB: ESAC (Essen Associative Code) Database: CHINA
!!!AMT: irregular
!!!AIN: vox
!!!EED: Helmut Schaffrath
!!!EEV: 1.0
*-
!!!ONB: Tied note syntax fixed by Craig Sapp, 2004/05/03/
